apps/service-portal/src/assets/images/myInfo.svg

<svg width="52" height="67" viewBox="0 0 52 67" fill="none" xmlns="http://www.w3.org/2000/svg">
<path d="M33.5005 5.33301H7.23888C5.74706 5.33301 4.53906 6.541 4.53906 8.03282C4.53906 9.52464 5.74706 10.7326 7.23888 10.7326H33.5028C34.9946 10.7326 36.2026 9.52464 36.2026 8.03282C36.2003 6.541 34.9923 5.33301 33.5005 5.33301ZM51.0927 46.9115C51.0927 48.4854 49.8166 49.7614 48.2427 49.7614V58.6068H27.4347V46.9115L37.7695 54.4879L48.2521 46.9115C48.231 46.7684 45.3928 47.0593 45.3928 46.9115C45.3928 45.3376 46.6688 44.0616 48.2427 44.0616C49.8166 44.0616 51.0927 45.3376 51.0927 46.9115Z" fill="url(#paint0_linear)"/>
<path d="M5.27428 66.2488C6.12798 66.2488 6.82005 65.5567 6.82005 64.703C6.82005 63.8493 6.12798 63.1572 5.27428 63.1572C4.42058 63.1572 3.72852 63.8493 3.72852 64.703C3.72852 65.5567 4.42058 66.2488 5.27428 66.2488Z" fill="#0061FF"/>
<path d="M41.4989 20.7439C42.3526 20.7439 43.0447 20.0518 43.0447 19.1981C43.0447 18.3444 42.3526 17.6523 41.4989 17.6523C40.6452 17.6523 39.9531 18.3444 39.9531 19.1981C39.9531 20.0518 40.6452 20.7439 41.4989 20.7439Z" fill="#0061FF"/>
<path d="M4.80497 55.5791C4.61028 55.5791 4.45312 55.422 4.45312 55.2273C4.45312 49.6048 6.17012 45.3241 9.55485 42.5023C12.8012 39.7978 17.6027 38.4256 23.8256 38.4256H24.1094C28.0219 38.4256 32.0658 38.428 35.1808 37.0487C38.6711 35.503 40.3693 32.3786 40.3693 27.4974C40.3693 27.3027 40.5265 27.1455 40.7211 27.1455C40.9158 27.1455 41.073 27.3027 41.073 27.4974C41.073 32.6859 39.2387 36.0213 35.4669 37.6914C32.2159 39.1316 28.097 39.1293 24.1118 39.1293H23.828C11.4407 39.1293 5.15916 44.5453 5.15916 55.2273C5.15681 55.4196 4.99966 55.5791 4.80497 55.5791Z" fill="#6A2EA0"/>
<path d="M16.1812 30.7293H5.02774C2.33027 30.7293 0.134766 28.5361 0.134766 25.8363V5.83047C0.134766 3.133 2.33027 0.9375 5.02774 0.9375H36.1471C38.8446 0.9375 41.0401 3.133 41.0401 5.83047V8.40831C41.0401 8.603 40.8829 8.76015 40.6882 8.76015C40.4936 8.76015 40.3364 8.603 40.3364 8.40831V5.83047C40.3364 3.52003 38.4576 1.64119 36.1471 1.64119H5.02774C2.7173 1.64119 0.838453 3.52003 0.838453 5.83047V25.8363C0.838453 28.1467 2.7173 30.0256 5.02774 30.0256H16.1812C16.3759 30.0256 16.533 30.1827 16.533 30.3774C16.533 30.5721 16.3759 30.7293 16.1812 30.7293Z" fill="#6A2EA0"/>
<path d="M8.91275 23.2093C6.85095 23.2093 5.17383 21.5322 5.17383 19.4704C5.17383 17.4086 6.85095 15.7314 8.91275 15.7314C10.9746 15.7314 12.6517 17.4086 12.6517 19.4704C12.6517 21.5322 10.9746 23.2093 8.91275 23.2093ZM8.91275 16.4328C7.23798 16.4328 5.87751 17.7956 5.87751 19.468C5.87751 21.1428 7.24032 22.5033 8.91275 22.5033C10.5875 22.5033 11.948 21.1405 11.948 19.468C11.948 17.7956 10.5875 16.4328 8.91275 16.4328Z" fill="#6A2EA0"/>
<path d="M20.1842 23.2093C18.1224 23.2093 16.4453 21.5322 16.4453 19.4704C16.4453 17.4086 18.1224 15.7314 20.1842 15.7314C22.246 15.7314 23.9232 17.4086 23.9232 19.4704C23.9232 21.5322 22.246 23.2093 20.1842 23.2093ZM20.1842 16.4328C18.5095 16.4328 17.149 17.7956 17.149 19.468C17.149 21.1428 18.5118 22.5033 20.1842 22.5033C21.8567 22.5033 23.2195 21.1405 23.2195 19.468C23.2195 17.7956 21.8567 16.4328 20.1842 16.4328Z" fill="#6A2EA0"/>
<path d="M5.88898 23.0263C5.79985 23.0263 5.71072 22.9934 5.64269 22.9254C5.5043 22.7894 5.50196 22.5665 5.63566 22.4281L11.8609 16.0574C11.997 15.919 12.2198 15.9167 12.3582 16.0527C12.4966 16.1888 12.4989 16.4116 12.3652 16.55L6.13996 22.9207C6.07194 22.9911 5.98046 23.0263 5.88898 23.0263Z" fill="#6A2EA0"/>
<path d="M17.1917 23.0263C17.1026 23.0263 17.0135 22.9934 16.9454 22.9254C16.807 22.7894 16.8047 22.5665 16.9384 22.4281L23.1637 16.0574C23.2997 15.919 23.5226 15.9167 23.6609 16.0527C23.7993 16.1888 23.8017 16.4116 23.668 16.55L17.4427 22.9207C17.3747 22.9911 17.2832 23.0263 17.1917 23.0263Z" fill="#6A2EA0"/>
<path d="M28.4964 23.0263C28.4073 23.0263 28.3181 22.9934 28.2501 22.9254C28.1117 22.7894 28.1094 22.5665 28.2431 22.4281L34.4683 16.0574C34.6044 15.919 34.8272 15.9167 34.9656 16.0527C35.104 16.1888 35.1064 16.4116 34.9727 16.55L28.7474 22.9207C28.6794 22.9911 28.5879 23.0263 28.4964 23.0263Z" fill="#6A2EA0"/>
<path d="M34.7211 23.0263C34.6296 23.0263 34.5382 22.9911 34.4701 22.9207L28.2448 16.55C28.1088 16.4116 28.1111 16.1888 28.2519 16.0527C28.3903 15.9167 28.6131 15.919 28.7491 16.0574L34.9744 22.4281C35.1105 22.5665 35.1081 22.7894 34.9674 22.9254C34.897 22.9934 34.8102 23.0263 34.7211 23.0263Z" fill="#6A2EA0"/>
<path d="M48.2549 59.233H27.2874C27.0927 59.233 26.9355 59.0758 26.9355 58.8811V46.9114C26.9355 46.7167 27.0927 46.5596 27.2874 46.5596H48.2549C48.4496 46.5596 48.6068 46.7167 48.6068 46.9114V58.8811C48.6068 59.0758 48.4473 59.233 48.2549 59.233ZM27.6392 58.5293H47.9031V47.2633H27.6392V58.5293Z" fill="#6A2EA0"/>
<path d="M37.7701 54.8404C37.6974 54.8404 37.6247 54.8193 37.5637 54.7747L27.0811 47.1983C26.924 47.0834 26.8888 46.8652 27.0014 46.7081C27.1163 46.5509 27.3345 46.5157 27.4916 46.6283L37.7678 54.0569L48.044 46.6283C48.2011 46.5157 48.4216 46.5509 48.5342 46.7081C48.6492 46.8652 48.6116 47.0857 48.4545 47.1983L37.9719 54.7747C37.9156 54.8169 37.8429 54.8404 37.7701 54.8404Z" fill="#6A2EA0"/>
<path d="M27.2883 59.2331C27.1968 59.2331 27.1077 59.1979 27.0373 59.1299C26.9012 58.9915 26.9012 58.7687 27.0396 58.6327L34.0272 51.7131C34.1656 51.577 34.3885 51.577 34.5245 51.7154C34.6606 51.8538 34.6606 52.0766 34.5222 52.2127L27.5346 59.1323C27.4665 59.2003 27.3774 59.2331 27.2883 59.2331Z" fill="#6A2EA0"/>
<path d="M48.2548 59.2331C48.1657 59.2331 48.0765 59.2003 48.0062 59.1323L41.0162 52.2127C40.8778 52.0766 40.8778 51.8538 41.0139 51.7154C41.1499 51.577 41.3727 51.577 41.5111 51.7131L48.5011 58.6327C48.6395 58.7687 48.6395 58.9915 48.5034 59.1299C48.4354 59.1979 48.3439 59.2331 48.2548 59.2331Z" fill="#6A2EA0"/>
<defs>
<linearGradient id="paint0_linear" x1="5.25502" y1="6.19702" x2="52.9528" y2="53.8948" gradientUnits="userSpaceOnUse">
<stop stop-color="#FF4C84"/>
<stop offset="0.2166" stop-color="#D35DA3"/>
<stop offset="0.593" stop-color="#8B79D4"/>
<stop offset="0.8638" stop-color="#5E8AF3"/>
<stop offset="1" stop-color="#4C90FF"/>
</linearGradient>
</defs>
</svg>

<svg width="52" height="67" fill="none" xmlns="http://www.w3.org/2000/svg"><path d="M33.5 5.333H7.24a2.699 2.699 0 1 0 0 5.4h26.264a2.699 2.699 0 1 0-.002-5.4Zm17.593 41.578a2.85 2.85 0 0 1-2.85 2.85v8.846H27.435V46.91l10.335 7.577 10.482-7.577c-.021-.143-2.86.148-2.86 0a2.85 2.85 0 0 1 5.7 0Z" fill="url(#a)"/><path d="M5.274 66.249a1.546 1.546 0 1 0 0-3.092 1.546 1.546 0 0 0 0 3.092ZM41.499 20.744a1.546 1.546 0 1 0 0-3.092 1.546 1.546 0 0 0 0 3.092Z" fill="#0061FF"/><path d="M4.805 55.58a.351.351 0 0 1-.352-.353c0-5.622 1.717-9.903 5.102-12.725 3.246-2.704 8.048-4.076 14.27-4.076h.284c3.913 0 7.957.002 11.072-1.377 3.49-1.546 5.188-4.67 5.188-9.552a.351.351 0 1 1 .704 0c0 5.189-1.834 8.524-5.606 10.194-3.251 1.44-7.37 1.438-11.355 1.438h-.284c-12.387 0-18.669 5.416-18.669 16.098a.356.356 0 0 1-.354.352ZM16.181 30.73H5.028a4.898 4.898 0 0 1-4.893-4.894V5.83A4.9 4.9 0 0 1 5.028.937h31.12A4.9 4.9 0 0 1 41.04 5.83v2.578a.351.351 0 1 1-.704 0V5.83c0-2.31-1.878-4.189-4.189-4.189H5.027a4.193 4.193 0 0 0-4.189 4.19v20.005c0 2.31 1.88 4.19 4.19 4.19H16.18a.351.351 0 1 1 0 .703Z" fill="#6A2EA0"/><path d="M8.913 23.21a3.743 3.743 0 0 1-3.74-3.74 3.743 3.743 0 0 1 3.74-3.739 3.743 3.743 0 0 1 3.739 3.74 3.743 3.743 0 0 1-3.74 3.738Zm0-6.777a3.039 3.039 0 0 0-3.035 3.035 3.039 3.039 0 0 0 3.035 3.035 3.039 3.039 0 0 0 3.035-3.035 3.039 3.039 0 0 0-3.035-3.035ZM20.184 23.21a3.743 3.743 0 0 1-3.739-3.74 3.743 3.743 0 0 1 3.74-3.739 3.743 3.743 0 0 1 3.738 3.74 3.743 3.743 0 0 1-3.739 3.738Zm0-6.777a3.039 3.039 0 0 0-3.035 3.035 3.039 3.039 0 0 0 3.035 3.035 3.04 3.04 0 0 0 3.035-3.035 3.04 3.04 0 0 0-3.035-3.035Z" fill="#6A2EA0"/><path d="M5.889 23.026a.354.354 0 0 1-.253-.598l6.225-6.37a.352.352 0 0 1 .504.492L6.14 22.92a.348.348 0 0 1-.251.106ZM17.192 23.026a.354.354 0 0 1-.253-.598l6.225-6.37a.352.352 0 0 1 .504.492l-6.225 6.37a.348.348 0 0 1-.251.106ZM28.496 23.026a.354.354 0 0 1-.253-.598l6.225-6.37a.352.352 0 0 1 .505.492l-6.226 6.37a.348.348 0 0 1-.25.106Z" fill="#6A2EA0"/><path d="M34.721 23.026a.348.348 0 0 1-.25-.105l-6.226-6.371a.35.35 0 0 1 .007-.497.352.352 0 0 1 .497.004l6.225 6.371a.35.35 0 0 1-.007.497.35.35 0 0 1-.246.101ZM48.255 59.233H27.287a.351.351 0 0 1-.351-.352v-11.97c0-.194.157-.351.351-.351h20.968c.195 0 .352.157.352.351v11.97c0 .195-.16.352-.352.352Zm-20.616-.704h20.264V47.263H27.64V58.53Z" fill="#6A2EA0"/><path d="M37.77 54.84a.348.348 0 0 1-.206-.065L27.08 47.198a.352.352 0 0 1-.08-.49.352.352 0 0 1 .49-.08l10.277 7.429 10.276-7.429a.352.352 0 0 1 .41.57l-10.482 7.577a.34.34 0 0 1-.202.065Z" fill="#6A2EA0"/><path d="M27.288 59.233a.352.352 0 0 1-.249-.6l6.988-6.92a.352.352 0 0 1 .495.5l-6.987 6.92a.346.346 0 0 1-.247.1ZM48.255 59.233a.355.355 0 0 1-.249-.1l-6.99-6.92a.352.352 0 0 1 .495-.5l6.99 6.92a.352.352 0 0 1-.246.6Z" fill="#6A2EA0"/><defs><linearGradient id="a" x1="5.255" y1="6.197" x2="52.953" y2="53.895" gradientUnits="userSpaceOnUse"><stop stop-color="#FF4C84"/><stop offset=".217" stop-color="#D35DA3"/><stop offset=".593" stop-color="#8B79D4"/><stop offset=".864" stop-color="#5E8AF3"/><stop offset="1" stop-color="#4C90FF"/></linearGradient></defs></svg>
